pics/icons/16x16/actions/go-superior.svg

<?xml version="1.0" encoding="UTF-8" standalone="no"?>
<!-- Created with Inkscape (http://www.inkscape.org/) -->

<svg
   xmlns:dc="http://purl.org/dc/elements/1.1/"
   xmlns:cc="http://creativecommons.org/ns#"
   xmlns:rdf="http://www.w3.org/1999/02/22-rdf-syntax-ns#"
   xmlns:svg="http://www.w3.org/2000/svg"
   xmlns="http://www.w3.org/2000/svg"
   xmlns:xlink="http://www.w3.org/1999/xlink"
   xmlns:sodipodi="http://sodipodi.sourceforge.net/DTD/sodipodi-0.dtd"
   xmlns:inkscape="http://www.inkscape.org/namespaces/inkscape"
   sodipodi:docname="go-superior.svg"
   inkscape:version="0.92.3 (2405546, 2018-03-11)"
   sodipodi:version="0.32"
   id="svg11300"
   height="16"
   width="16"
   inkscape:export-filename="/home/ulisse/icone/tango-ubuntu/arrows/green/16x16/go-jump.png"
   inkscape:export-xdpi="90.000000"
   inkscape:export-ydpi="90.000000"
   version="1.0"
   inkscape:output_extension="org.inkscape.output.svg.inkscape">
  <defs
     id="defs3">
    <inkscape:perspective
       sodipodi:type="inkscape:persp3d"
       inkscape:vp_x="0 : 8 : 1"
       inkscape:vp_y="0 : 1000 : 0"
       inkscape:vp_z="16 : 8 : 1"
       inkscape:persp3d-origin="8 : 5.3333333 : 1"
       id="perspective32" />
    <linearGradient
       inkscape:collect="always"
       id="linearGradient2702">
      <stop
         style="stop-color:#3a7304;stop-opacity:1"
         offset="0"
         id="stop2704" />
      <stop
         style="stop-color:#3a7304;stop-opacity:0"
         offset="1"
         id="stop2706" />
    </linearGradient>
    <linearGradient
       inkscape:collect="always"
       id="linearGradient2187">
      <stop
         style="stop-color:#ffffff;stop-opacity:1;"
         offset="0"
         id="stop2189" />
      <stop
         style="stop-color:#ffffff;stop-opacity:0;"
         offset="1"
         id="stop2191" />
    </linearGradient>
    <linearGradient
       id="linearGradient8662"
       inkscape:collect="always">
      <stop
         id="stop8664"
         offset="0"
         style="stop-color:#000000;stop-opacity:1;" />
      <stop
         id="stop8666"
         offset="1"
         style="stop-color:#000000;stop-opacity:0;" />
    </linearGradient>
    <radialGradient
       gradientUnits="userSpaceOnUse"
       gradientTransform="matrix(1,0,0,0.536723,-1.173974e-14,16.87306)"
       r="15.644737"
       fy="36.421127"
       fx="24.837126"
       cy="36.421127"
       cx="24.837126"
       id="radialGradient8668"
       xlink:href="#linearGradient8662"
       inkscape:collect="always" />
    <linearGradient
       inkscape:collect="always"
       xlink:href="#linearGradient2591"
       id="linearGradient1338"
       gradientUnits="userSpaceOnUse"
       gradientTransform="matrix(0.552819,0,0,0.645744,-3.547601,-2.398123)"
       spreadMethod="pad"
       x1="25.910744"
       y1="13.867445"
       x2="27.18969"
       y2="22.987034" />
    <linearGradient
       inkscape:collect="always"
       xlink:href="#linearGradient2702"
       id="linearGradient1340"
       gradientUnits="userSpaceOnUse"
       gradientTransform="matrix(0.471718,0,0,0.551011,-1.342531,-1.611335)"
       x1="12.105637"
       y1="24.589863"
       x2="8.3580408"
       y2="28.478729" />
    <linearGradient
       inkscape:collect="always"
       xlink:href="#linearGradient2187"
       id="linearGradient1342"
       gradientUnits="userSpaceOnUse"
       gradientTransform="matrix(0.552819,0,0,0.645744,-3.547601,-2.398123)"
       x1="18.59234"
       y1="15.327405"
       x2="8.8207941"
       y2="19.407677" />
    <radialGradient
       gradientUnits="userSpaceOnUse"
       gradientTransform="matrix(0.843022,1.871885e-16,-2.265228e-16,1.020168,4.499298,1.381992)"
       r="16.9562"
       fy="32.797512"
       fx="22.291636"
       cy="32.797512"
       cx="22.291636"
       id="radialGradient2597"
       xlink:href="#linearGradient2591"
       inkscape:collect="always" />
    <radialGradient
       inkscape:collect="always"
       xlink:href="#linearGradient8650"
       id="radialGradient8656"
       cx="19.701141"
       cy="2.8969381"
       fx="19.701141"
       fy="2.8969381"
       r="17.171415"
       gradientTransform="matrix(2.046729,-3.749427e-16,2.853404e-16,1.55761,-19.51799,3.452086)"
       gradientUnits="userSpaceOnUse" />
    <linearGradient
       inkscape:collect="always"
       id="linearGradient8650">
      <stop
         style="stop-color:#ffffff;stop-opacity:1;"
         offset="0"
         id="stop8652" />
      <stop
         style="stop-color:#ffffff;stop-opacity:0;"
         offset="1"
         id="stop8654" />
    </linearGradient>
    <linearGradient
       id="linearGradient2591">
      <stop
         id="stop2593"
         offset="0"
         style="stop-color:#73d216" />
      <stop
         id="stop2595"
         offset="1.0000000"
         style="stop-color:#4e9a06" />
    </linearGradient>
    <linearGradient
       inkscape:collect="always"
       xlink:href="#linearGradient2702"
       id="linearGradient4542"
       gradientUnits="userSpaceOnUse"
       gradientTransform="matrix(-0.3481727,0,0,-0.51643286,16.898855,18.82085)"
       x1="12.105637"
       y1="24.589863"
       x2="8.3580408"
       y2="28.478729" />
  </defs>
  <sodipodi:namedview
     inkscape:window-y="-13"
     inkscape:window-x="-13"
     inkscape:window-height="2755"
     inkscape:window-width="3440"
     inkscape:showpageshadow="false"
     inkscape:document-units="px"
     inkscape:grid-bbox="true"
     showgrid="true"
     inkscape:current-layer="layer1"
     inkscape:cy="8.4034825"
     inkscape:cx="6.2670498"
     inkscape:zoom="22.627417"
     inkscape:pageshadow="2"
     inkscape:pageopacity="0.0"
     borderopacity="1"
     bordercolor="#666666"
     pagecolor="#ffffff"
     id="base"
     fill="#8ae234"
     stroke="#8ae234"
     inkscape:grid-points="true"
     inkscape:window-maximized="1">
    <inkscape:grid
       id="GridFromPre046Settings"
       type="xygrid"
       originx="0"
       originy="0"
       spacingx="0.5"
       spacingy="0.5"
       color="#0000ff"
       empcolor="#0000ff"
       opacity="0.2"
       empopacity="0.4"
       empspacing="2" />
  </sodipodi:namedview>
  <metadata
     id="metadata4">
    <rdf:RDF>
      <cc:Work
         rdf:about="">
        <dc:format>image/svg+xml</dc:format>
        <dc:type
           rdf:resource="http://purl.org/dc/dcmitype/StillImage" />
        <dc:creator>
          <cc:Agent>
            <dc:title>Ulisse Perusin</dc:title>
          </cc:Agent>
        </dc:creator>
        <dc:source />
        <cc:license
           rdf:resource="http://creativecommons.org/licenses/publicdomain/" />
        <dc:title>Go Jump</dc:title>
        <dc:subject>
          <rdf:Bag>
            <rdf:li>go</rdf:li>
            <rdf:li>jump</rdf:li>
            <rdf:li>seek</rdf:li>
            <rdf:li>arrow</rdf:li>
            <rdf:li>pointer</rdf:li>
          </rdf:Bag>
        </dc:subject>
        <dc:contributor>
          <cc:Agent>
            <dc:title>Jakub Steiner</dc:title>
          </cc:Agent>
        </dc:contributor>
      </cc:Work>
      <cc:License
         rdf:about="http://creativecommons.org/licenses/publicdomain/">
        <cc:permits
           rdf:resource="http://creativecommons.org/ns#Reproduction" />
        <cc:permits
           rdf:resource="http://creativecommons.org/ns#Distribution" />
        <cc:permits
           rdf:resource="http://creativecommons.org/ns#DerivativeWorks" />
      </cc:License>
    </rdf:RDF>
  </metadata>
  <g
     inkscape:groupmode="layer"
     inkscape:label="Layer 1"
     id="layer1">
    <g
       id="g1334"
       transform="matrix(-0.738095,0,0,-0.937246,15.90794,17.310634)">
      <path
         sodipodi:nodetypes="ccccccc"
         id="path1432"
         d="M 0.67741961,10.497832 C 1.3548392,4.0960975 10.161294,4.0960975 8.8064545,11.03131 c 0,0 -4.0645174,0 -4.0645174,0 l 8.1290349,6.935212 8.129035,-6.935212 H 16.935489 C 18.290329,-1.7721591 -1.1774195,1.2390401 0.67741961,10.497832 Z"
         style="color:#000000;display:block;overflow:visible;visibility:visible;opacity:1;fill:url(#linearGradient1338);fill-opacity:1;fill-rule:nonzero;stroke:url(#linearGradient1340);stroke-width:1.20231175;stroke-linecap:butt;stroke-linejoin:miter;stroke-miterlimit:4;stroke-dasharray:none;stroke-dashoffset:0;stroke-opacity:1;marker:none;marker-start:none;marker-mid:none;marker-end:none"
         inkscape:connector-curvature="0" />
      <path
         inkscape:export-ydpi="90"
         inkscape:export-xdpi="90"
         style="color:#000000;display:block;overflow:visible;visibility:visible;opacity:0.41764706;fill:none;fill-opacity:1;fill-rule:nonzero;stroke:url(#linearGradient1342);stroke-width:1.20231116;stroke-linecap:butt;stroke-linejoin:miter;stroke-miterlimit:4;stroke-dasharray:none;stroke-dashoffset:0;stroke-opacity:1;marker:none;marker-start:none;marker-mid:none;marker-end:none"
         d="M 2.0322588,6.7634869 C 4.0645175,3.0291418 16.934428,-0.16337126 15.58065,12.098266 h 2.709679 l -5.419357,4.8013 -5.4193567,-4.8013 c 0,0 2.7096787,0 2.7096787,0 C 11.516133,2.4956639 2.0322588,4.0960975 2.0322588,6.7634869 Z"
         id="path2177"
         sodipodi:nodetypes="ccccccc"
         inkscape:connector-curvature="0" />
    </g>
    <path
       sodipodi:nodetypes="ccccccc"
       id="path2203"
       d="m 15.40794,7.4715825 c -0.5,5.9999995 -7.0000003,5.9999995 -6,-0.5000001 0,0 3,0 3,0 l -6,-6.49999968 L 0.40794018,6.9715824 H 3.4079402 C 2.4079392,18.971582 16.776987,16.149348 15.40794,7.4715825 Z"
       style="color:#000000;display:block;overflow:visible;visibility:visible;opacity:1;fill:none;fill-opacity:1;fill-rule:nonzero;stroke:url(#linearGradient4542);stroke-width:1;stroke-linecap:butt;stroke-linejoin:miter;stroke-miterlimit:4;stroke-dasharray:none;stroke-dashoffset:0;stroke-opacity:1;marker:none;marker-start:none;marker-mid:none;marker-end:none"
       inkscape:connector-curvature="0" />
  </g>
</svg>

<svg xmlns="http://www.w3.org/2000/svg" xmlns:xlink="http://www.w3.org/1999/xlink" height="16" width="16" version="1.0"><defs><linearGradient id="c"><stop offset="0" stop-color="#3a7304"/><stop offset="1" stop-color="#3a7304" stop-opacity="0"/></linearGradient><linearGradient id="d"><stop offset="0" stop-color="#fff"/><stop offset="1" stop-color="#fff" stop-opacity="0"/></linearGradient><linearGradient id="a"><stop offset="0"/><stop offset="1" stop-opacity="0"/></linearGradient><linearGradient xlink:href="#b" id="f" gradientUnits="userSpaceOnUse" gradientTransform="matrix(.55282 0 0 .64574 -3.548 -2.398)" spreadMethod="pad" x1="25.911" y1="13.867" x2="27.19" y2="22.987"/><linearGradient xlink:href="#c" id="g" gradientUnits="userSpaceOnUse" gradientTransform="matrix(.47172 0 0 .55101 -1.343 -1.611)" x1="12.106" y1="24.59" x2="8.358" y2="28.479"/><linearGradient xlink:href="#d" id="h" gradientUnits="userSpaceOnUse" gradientTransform="matrix(.55282 0 0 .64574 -3.548 -2.398)" x1="18.592" y1="15.327" x2="8.821" y2="19.408"/><linearGradient id="e"><stop offset="0" stop-color="#fff"/><stop offset="1" stop-color="#fff" stop-opacity="0"/></linearGradient><linearGradient id="b"><stop offset="0" stop-color="#73d216"/><stop offset="1" stop-color="#4e9a06"/></linearGradient><linearGradient xlink:href="#c" id="i" gradientUnits="userSpaceOnUse" gradientTransform="matrix(-.34817 0 0 -.51643 16.899 18.82)" x1="12.106" y1="24.59" x2="8.358" y2="28.479"/></defs><g color="#000"><g stroke-width="1.202"><path d="M.677 10.498c.678-6.402 9.484-6.402 8.13.533H4.741l8.129 6.936L21 11.03h-4.065C18.29-1.772-1.177 1.24.677 10.498z" style="marker:none" display="block" overflow="visible" fill="url(#f)" stroke="url(#g)" transform="matrix(-.7381 0 0 -.93725 15.908 17.31)"/><path style="marker:none" d="M2.032 6.763C4.065 3.03 16.934-.163 15.581 12.098h2.71L12.87 16.9l-5.42-4.802h2.71c1.355-9.602-8.129-8.002-8.129-5.335z" display="block" overflow="visible" opacity=".418" fill="none" stroke="url(#h)" transform="matrix(-.7381 0 0 -.93725 15.908 17.31)"/></g><path d="M15.408 7.472c-.5 6-7 6-6-.5h3l-6-6.5-6 6.5h3c-1 12 13.369 9.177 12 .5z" style="marker:none" display="block" overflow="visible" fill="none" stroke="url(#i)"/></g></svg>
